static/characters/uzukumari/front-walking-1.svg

<svg width="160" height="182" xmlns="http://www.w3.org/2000/svg" xml:space="preserve" style="fill-rule:evenodd;clip-rule:evenodd;stroke-linejoin:round;stroke-miterlimit:1.5"><path d="m16.532 87.891-14 7.655 12 5.294.612 26.051-12.612 7 12.612 5.166c14.104 7.269 30.085 4.298 41.856.288-.216-2.557 7.716 3.744 9.125 4.773 0 0 5.374-1.636 4.983-4.593 0 0 31.04-3.213 34.892-4.875l13.375-.731v-11l-6.25-1L105 121c-4.085-2.075-3.438-3.677 0-5l11.375-.081v-11.5l-5.75-2.5L103 102c-3.833-8.246-14.16-14.035-23.375-16.081-3.028-.672-8.613 1.918-8.52-.588.046-1.268-2.621-6.286-5.98-4.791-1.992.887-3.211 5.657-4.549 5.27-6.226-1.804-5.151-9.862-11.137-9.368-6-4.118-14.212-4.664-20.212-1.005-6.162 3.105-10.421 3.905-12.695 12.454Z" style="fill:#fff" transform="matrix(-1 0 0 1 140.457 -2.549)"/><path d="M52.35 77.6c3.601 3.975 4.417 6.659 8.775 7.687m10 .252c.983-.075 2.038-.17 3.171-.284 7.402-.749 22.491 6.867 26.704 13.774" style="fill:none;stroke:#000;stroke-width:3px" transform="matrix(-1 0 0 1 140.457 -2.549)"/><path d="m46.144 86.584-13.269 6.962 12.777 4.997" style="fill:none;stroke:#000;stroke-width:3px" transform="matrix(-1 0 0 1 170.457 -1.175)"/><path d="m46.144 86.584-13.269 6.962 12.777 4.997" style="fill:none;stroke:#000;stroke-width:3px" transform="matrix(-1 0 0 1 170.457 36.994)"/><path d="M45.532 104.546v17-17Zm4-25c.023 1.554-.233 2.813-1.5 3" style="fill:none;stroke:#000;stroke-width:3px" transform="matrix(-1 0 0 1 170.457 -1.175)"/><path d="M49.227 84.092c.023 1.554-.232 2.813-1.5 3" style="fill:none;stroke:#000;stroke-width:3px" transform="matrix(-1 0 0 1 161.708 -11.675)"/><path d="M61.227 73.092c5-3.165 11.898-2.013 16.898 1.152" style="fill:none;stroke:#000;stroke-width:3px" transform="matrix(-1 0 0 1 170.457 -1.175)"/><path d="M88.5 102c-4.56 4.628-5.132 9.581 0 15" style="fill:none;stroke:#000;stroke-width:3px" transform="matrix(-1 0 0 1 148.47 -2.63)"/><path d="M88.5 102c-4.56 4.628-5.132 9.581 0 15" style="fill:none;stroke:#000;stroke-width:3px" transform="matrix(-1 0 0 1 148.47 17.37)"/><path d="m103 102 6.625-.081" style="fill:none;stroke:#000;stroke-width:3px" transform="matrix(-1 0 0 1 140.457 -2.549)"/><path d="M64.532 110.046c1.28-2.089 2.172-2.141 4-1.592 1.118.336 1.573 2.358.694 3.592-.383.539-.918.955-1.694 1.258.654.003 1.319.346 2 .671 1.671.799.802 5.083-2 4.724-1.243-.159-2.514-.702-3-3.153" style="fill:none;stroke:#000;stroke-width:3px" transform="matrix(-1 0 0 1 170.457 -1.175)"/><path d="m106 121.5 6.625-.081m-2.5-17h6v12" style="fill:none;stroke:#000;stroke-width:3px" transform="matrix(-1 0 0 1 140.457 -2.549)"/><path d="M110.125 104.419h6v12" style="fill:none;stroke:#000;stroke-width:3px" transform="matrix(-1 0 0 1 137.457 16.451)"/><path d="M111.125 109.919h4.5" style="fill:none;stroke:#000;stroke-width:3px" transform="matrix(-1 0 0 1 140.457 -2.549)"/><path d="M111.125 109.919h4.5" style="fill:none;stroke:#000;stroke-width:3px" transform="matrix(-1 0 0 1 137.457 16.451)"/><path d="M110.125 114.919h6" style="fill:none;stroke:#000;stroke-width:3px" transform="matrix(-1 0 0 1 140.457 -2.549)"/><path d="M110.125 114.919h6" style="fill:none;stroke:#000;stroke-width:3px" transform="matrix(-1 0 0 1 137.457 16.451)"/><path d="M91.5 105v9c2.543 3 5.364 3.132 8.5 0v-9" style="fill:none;stroke:#000;stroke-width:3px" transform="scale(1 -1) rotate(34.829 394.427 -19.83)"/><path d="M91.5 105v9c2.543 3 5.364 3.132 8.5 0v-9" style="fill:none;stroke:#000;stroke-width:3px" transform="rotate(53.803 60.158 102.746)"/><circle cx="68" cy="89.5" r="1.5" transform="matrix(-1.33333 0 0 1.33333 194.999 -28.963)"/><circle cx="68" cy="89.5" r="1.5" transform="matrix(-1.33333 0 0 1.33333 194.999 9.928)"/></svg>

<?xml version="1.0" encoding="UTF-8" standalone="no"?>
<!DOCTYPE svg PUBLIC "-//W3C//DTD SVG 1.1//EN" "http://www.w3.org/Graphics/SVG/1.1/DTD/svg11.dtd">
<svg width="160" height="182" viewBox="0 0 160 182" version="1.1" xmlns="http://www.w3.org/2000/svg" xmlns:xlink="http://www.w3.org/1999/xlink" xml:space="preserve" xmlns:serif="http://www.serif.com/" style="fill-rule:evenodd;clip-rule:evenodd;stroke-linejoin:round;stroke-miterlimit:1.5;">
    <g transform="matrix(-1,0,0,1,140.457,-2.54891)">
        <g id="front-walking1" serif:id="front walking1">
            <path d="M16.532,87.891L2.532,95.546L14.532,100.84L15.144,126.891L2.532,133.891L15.144,139.057C29.248,146.326 45.229,143.355 57,139.345C56.784,136.788 64.716,143.089 66.125,144.118C66.125,144.118 71.499,142.482 71.108,139.525C71.108,139.525 102.148,136.312 106,134.65L119.375,133.919L119.375,122.919L113.125,121.919L105,121C100.915,118.925 101.562,117.323 105,116L116.375,115.919L116.375,104.419L110.625,101.919L103,102C99.167,93.754 88.84,87.965 79.625,85.919C76.597,85.247 71.012,87.837 71.105,85.331C71.151,84.063 68.484,79.045 65.125,80.54C63.133,81.427 61.914,86.197 60.576,85.81C54.35,84.006 55.425,75.948 49.439,76.442C43.439,72.324 35.227,71.778 29.227,75.437C23.065,78.542 18.806,79.342 16.532,87.891Z" style="fill:white;"/>
            <path d="M52.35,77.6C55.951,81.575 56.767,84.259 61.125,85.287" style="fill:none;stroke:black;stroke-width:3px;"/>
            <path d="M71.125,85.539C72.108,85.464 73.163,85.369 74.296,85.255C81.698,84.506 96.787,92.122 101,99.029" style="fill:none;stroke:black;stroke-width:3px;"/>
            <g transform="matrix(1,0,0,1,-30,1.3735)">
                <path d="M46.144,86.584L32.875,93.546L45.652,98.543" style="fill:none;stroke:black;stroke-width:3px;"/>
            </g>
            <g transform="matrix(1,0,0,1,-30,39.5427)">
                <path d="M46.144,86.584L32.875,93.546L45.652,98.543" style="fill:none;stroke:black;stroke-width:3px;"/>
            </g>
            <g transform="matrix(1,0,0,1,-30,1.3735)">
                <path d="M45.532,104.546L45.532,121.546L45.532,104.546Z" style="fill:none;stroke:black;stroke-width:3px;"/>
            </g>
            <g transform="matrix(1,0,0,1,-30,1.3735)">
                <path d="M49.532,79.546C49.555,81.1 49.299,82.359 48.032,82.546" style="fill:none;stroke:black;stroke-width:3px;"/>
            </g>
            <g transform="matrix(1,0,0,1,-21.2507,-9.1265)">
                <path d="M49.227,84.092C49.25,85.646 48.995,86.905 47.727,87.092" style="fill:none;stroke:black;stroke-width:3px;"/>
            </g>
            <g transform="matrix(1,0,0,1,-30,1.3735)">
                <path d="M61.227,73.092C66.227,69.927 73.125,71.079 78.125,74.244" style="fill:none;stroke:black;stroke-width:3px;"/>
            </g>
            <g transform="matrix(1,0,0,1,-8.01264,-0.0810682)">
                <path d="M88.5,102C83.94,106.628 83.368,111.581 88.5,117" style="fill:none;stroke:black;stroke-width:3px;"/>
            </g>
            <g transform="matrix(1,0,0,1,-8.01264,19.9189)">
                <path d="M88.5,102C83.94,106.628 83.368,111.581 88.5,117" style="fill:none;stroke:black;stroke-width:3px;"/>
            </g>
            <path d="M103,102L109.625,101.919" style="fill:none;stroke:black;stroke-width:3px;"/>
            <g transform="matrix(1,0,0,1,-30,1.3735)">
                <path d="M64.532,110.046C65.812,107.957 66.704,107.905 68.532,108.454C69.65,108.79 70.105,110.812 69.226,112.046C68.843,112.585 68.308,113.001 67.532,113.304C68.186,113.307 68.851,113.65 69.532,113.975C71.203,114.774 70.334,119.058 67.532,118.699C66.289,118.54 65.018,117.997 64.532,115.546" style="fill:none;stroke:black;stroke-width:3px;"/>
            </g>
            <path d="M106,121.5L112.625,121.419" style="fill:none;stroke:black;stroke-width:3px;"/>
            <path d="M110.125,104.419L116.125,104.419L116.125,116.419" style="fill:none;stroke:black;stroke-width:3px;"/>
            <g transform="matrix(1,0,0,1,3,19)">
                <path d="M110.125,104.419L116.125,104.419L116.125,116.419" style="fill:none;stroke:black;stroke-width:3px;"/>
            </g>
            <path d="M111.125,109.919L115.625,109.919" style="fill:none;stroke:black;stroke-width:3px;"/>
            <g transform="matrix(1,0,0,1,3,19)">
                <path d="M111.125,109.919L115.625,109.919" style="fill:none;stroke:black;stroke-width:3px;"/>
            </g>
            <path d="M110.125,114.919L116.125,114.919" style="fill:none;stroke:black;stroke-width:3px;"/>
            <g transform="matrix(1,0,0,1,3,19)">
                <path d="M110.125,114.919L116.125,114.919" style="fill:none;stroke:black;stroke-width:3px;"/>
            </g>
            <g transform="matrix(-0.820863,-0.571125,0.571125,-0.820863,81.1256,231.368)">
                <path d="M91.5,105L91.5,114C94.043,117 96.864,117.132 100,114L100,105" style="fill:none;stroke:black;stroke-width:3px;"/>
            </g>
            <g transform="matrix(-0.590562,0.806992,0.806992,0.590562,32.9109,-3.92988)">
                <path d="M91.5,105L91.5,114C94.043,117 96.864,117.132 100,114L100,105" style="fill:none;stroke:black;stroke-width:3px;"/>
            </g>
            <g transform="matrix(1.33333,0,0,1.33333,-54.5417,-26.4144)">
                <circle cx="68" cy="89.5" r="1.5"/>
            </g>
            <g transform="matrix(1.33333,0,0,1.33333,-54.5417,12.4771)">
                <circle cx="68" cy="89.5" r="1.5"/>
            </g>
        </g>
    </g>
</svg>
